X:1
T:Gavotte pourlet 4
%%scale 0.85
Z:Roger Ngaret (3 juin 99)
R:gavotte
C:Trad.
S:D. Burban
A:Bretagne
M:4/4
L:1/8
Q:1/4=151
K:Bb
FE F3/2E/2 FG _AG|F/2E/2F _AG E3/2z/2 C3/2z/2|FE F3/2E/2 FG _AG|F/2E/2F _AG E3/2z/2 C3/2z/2|
FE F3/2E/2 FG _AG|F/2G/2F/2E/2 FG Fz F3/2z/2|FE F3/2E/2 FG _AG|F/2G/2F/2E/2 FG Fz F3/2z/2|
B,F FE/2D/2 B,D FG/2_A/2|B_A GE G3/2z/2 F3/2z/2|B,F FE/2D/2 B,D FG/2_A/2|B_A GE G3/2z/2 F3/2z/2|
B,F FF/2E/2 D/2E/2C/2D/2 B,B,/2C/2|DB, CA, B,3/2z/2 F3/2z/2|B,F FF/2E/2 D/2E/2C/2D/2 B,B,/2C/2|DB, C[_AA,] [BB,-]B,/2z/2 [B3/2B,3/2]z/2|
B,F FF/2E/2 D/2E/2C/2D/2 B,B,/2C/2|DB, CA, B,3/2z/2 F3/2z/2|B,F FF/2E/2 D/2E/2C/2D/2 B,B,/2C/2|DB, C[_AA,] [BB,-]B,/2z/2 [B3/2B,3/2]z/2|
B,/2A,/2B, CD EC F3/2z/2|FG E/2F/2E/2D/2 Cz C3/2z/2|B,/2A,/2B, CD EC F3/2z/2|FG E/2F/2E/2D/2 Cz C3/2z/2|
B,3/2z/2 CD (3EDC E3/2z/2|[dD][cC] [BB,][=AA,] [BB,][cC] [d-D][d/2C/2-]C/2|B,3/2z/2 CD (3EDC E3/2z/2|[dD][cC] [B/2B,/2][c/2C/2][B/2B,/2][A/2A,/2] [BB,]z [B3/2B,3/2]z/2|
B,3/2z/2 CD (3EDC E3/2z/2|[dD][cC] [BB,][AA,] [BB,][cC] [d-D][d/2C/2-]C/2|B,3/2z/2 CD (3EDC E3/2z/2|[dD][cC] [B/2B,/2][c/2C/2][B/2B,/2][A/2A,/2] [BB,]z [B3/2B,3/2]z/2|
CF F3/2F/2 FE/2F/2 EE/2F/2|GF FE C3/2z/2 C3/2z/2|CF F3/2F/2 FE/2F/2 EE/2F/2|GF FE C3/2z/2 C3/2z/2|
CF FF/2F/2 FG E3/2z/2|FF/2G/2 _AF GE F3/2z/2|CF FF/2F/2 FG E3/2z/2|
FF/2G/2 _AF GE F3/2z/2|
B,3/2z/2 CD ED/2C/2 F3/2z/2|E/2F/2E/2C/2 DE Dz C3/2z/2|B,3/2z/2 CD ED/2C/2 F3/2z/2|E/2F/2E/2C/2 DE Dz C3/2z/2|
B,B, CD EC F3/2z/2|D/2C/2B, CD B,D CF|[B-B,][B/2B,/2-]B,/2 [cC][dD] [cC][BB,] Fz|DB, C/2D/2C/2[=A/2A,/2] [BB,]z [B3/2B,3/2]z/2|
B,B, CD EC F3/2z/2|D/2C/2B, CD B,D CF|[B-B,][B/2B,/2-]B,/2 [cC][dD] [cC][BB,] Fz|DB, C/2D/2C/2[A/2A,/2] [BB,]z [B3/2B,3/2]z/2|
F/2G/2F/2D/2 B,D F/2G/2F/2D/2 B,D|F/2D/2F BF Dz F3/2z/2|F/2G/2F/2D/2 B,D F/2G/2F/2D/2 B,D|EC C[AA,] [BB,]z [B3/2B,3/2]z/2|
F/2G/2F/2D/2 B,D F/2G/2F/2D/2 B,D|F/2D/2F BF Dz F3/2z/2|F/2G/2F/2D/2 B,D F/2G/2F/2D/2 B,D|EC C[AA,] [BB,]z [B3/2B,3/2]z/2|
BF/2D/2 FB AG FB|FD E/2D/2E Fz D3/2z/2|B,D FB AG FB|F/2E/2D/2E/2 CD B,z B,3/2z/2|
B,D FB AG FB|FD E/2D/2E Fz D3/2z/2|B,D FB AG FB|F/2E/2D/2E/2 FG/2A/2 Bz B3/2z/2|
BF/2D/2 FB AG FB|FD E/2D/2E Fz D3/2z/2|B,D FB AG FB|F/2E/2D/2E/2 CD B,z B,3/2z/2|
B,D FB AG FB|FD E/2D/2E Fz D3/2z/2|B,D FB AG FB|F/2E/2D/2E/2 FG/2A/2 Bz B3/2 |]
